X:944
T:Körepolska
T:(SvL Skåne 944)
T:efter Ola Grönvall
R:Körepolska
O:Värby, Bara, Skåne
S:Svenska Låtar Skåne
B:Svenska Låtar Skåne
Z:Åke Persson 2012-03-19
M:3/4
L:1/8
K:D
|: cd A2 cd | ef(f e)ec | AA F2 GA | AB {c}B2 A2  :|
|: AA F2 GA | AB BA AF | AA F2 GA | AB B2 A2 | Acde f(a/g/) | ec d2 d2 :|

